app/img/icon-linkedin.svg

<svg width="42" height="42" viewBox="0 0 42 42" fill="none" xmlns="http://www.w3.org/2000/svg">
<path d="M35.736 4.98962H6.27692C5.56847 4.98962 4.99609 5.562 4.99609 6.27046V35.7296C4.99609 36.438 5.56847 37.0104 6.27692 37.0104H35.736C36.4445 37.0104 37.0169 36.438 37.0169 35.7296V6.27046C37.0169 5.562 36.4445 4.98962 35.736 4.98962ZM14.4943 32.2753H9.74317V16.9934H14.4943V32.2753ZM12.1207 14.9041C11.5761 14.9041 11.0437 14.7425 10.5908 14.44C10.1379 14.1374 9.78498 13.7073 9.57655 13.2041C9.36812 12.7009 9.31359 12.1472 9.41984 11.613C9.5261 11.0789 9.78837 10.5882 10.1735 10.203C10.5586 9.81792 11.0493 9.55565 11.5835 9.4494C12.1177 9.34314 12.6714 9.39768 13.1745 9.6061C13.6777 9.81453 14.1078 10.1675 14.4104 10.6203C14.713 11.0732 14.8745 11.6056 14.8745 12.1503C14.8705 13.6713 13.6377 14.9041 12.1207 14.9041ZM32.2818 32.2753H27.5347V24.8425C27.5347 23.0694 27.5027 20.7919 25.0651 20.7919C22.5955 20.7919 22.2153 22.7211 22.2153 24.7144V32.2753H17.4722V16.9934H22.0271V19.0828H22.0912C22.7236 17.882 24.2726 16.6132 26.5861 16.6132C31.3972 16.6132 32.2818 19.7792 32.2818 23.8939V32.2753Z" fill="white"/>
</svg>

<svg width="42" height="42" fill="none" xmlns="http://www.w3.org/2000/svg"><path d="M35.736 4.99H6.276a1.28 1.28 0 00-1.28 1.28v29.46c0 .708.572 1.28 1.28 1.28h29.46a1.28 1.28 0 001.28-1.28V6.27a1.28 1.28 0 00-1.28-1.28zM14.494 32.275h-4.75V16.993h4.75v15.282zm-2.373-17.37a2.755 2.755 0 112.753-2.755 2.759 2.759 0 01-2.753 2.754zm20.16 17.37h-4.746v-7.432c0-1.774-.032-4.051-2.47-4.051-2.47 0-2.85 1.93-2.85 3.922v7.561h-4.743V16.993h4.555v2.09h.064c.633-1.201 2.182-2.47 4.495-2.47 4.811 0 5.696 3.166 5.696 7.28v8.382z" fill="#fff"/></svg>
